X:0773
M:6/8
L:1/8
Q:3/8=80 "Slow"
K:D
f/g/|a2a a2f|g2g g2e|f2 f fed|Hf3  e2A/A/|d3 e3|f3- f2g   |f>gf ede d3  d2:|

